localPackages/DesignSystem/Sources/DesignSystem/Resources/Assets.xcassets/IconSet/ic-grid-3.imageset/ic-grid-3.svg

<svg width="24" height="24" viewBox="0 0 24 24" fill="none" xmlns="http://www.w3.org/2000/svg">
<g id="ic-grid-3">
<path id="Icon" fill-rule="evenodd" clip-rule="evenodd" d="M3 4.2C3 3.53726 3.53726 3 4.2 3H4.8C5.46274 3 6 3.53726 6 4.2V4.8C6 5.46274 5.46274 6 4.8 6H4.2C3.53726 6 3 5.46274 3 4.8V4.2ZM3 11.7C3 11.0373 3.53726 10.5 4.2 10.5H4.8C5.46274 10.5 6 11.0373 6 11.7V12.3C6 12.9627 5.46274 13.5 4.8 13.5H4.2C3.53726 13.5 3 12.9627 3 12.3V11.7ZM4.2 18C3.53726 18 3 18.5373 3 19.2V19.8C3 20.4627 3.53726 21 4.2 21H4.8C5.46274 21 6 20.4627 6 19.8V19.2C6 18.5373 5.46274 18 4.8 18H4.2ZM10.5 4.2C10.5 3.53726 11.0373 3 11.7 3H12.3C12.9627 3 13.5 3.53726 13.5 4.2V4.8C13.5 5.46274 12.9627 6 12.3 6H11.7C11.0373 6 10.5 5.46274 10.5 4.8V4.2ZM11.7 10.5C11.0373 10.5 10.5 11.0373 10.5 11.7V12.3C10.5 12.9627 11.0373 13.5 11.7 13.5H12.3C12.9627 13.5 13.5 12.9627 13.5 12.3V11.7C13.5 11.0373 12.9627 10.5 12.3 10.5H11.7ZM10.5 19.2C10.5 18.5373 11.0373 18 11.7 18H12.3C12.9627 18 13.5 18.5373 13.5 19.2V19.8C13.5 20.4627 12.9627 21 12.3 21H11.7C11.0373 21 10.5 20.4627 10.5 19.8V19.2ZM19.2 3C18.5373 3 18 3.53726 18 4.2V4.8C18 5.46274 18.5373 6 19.2 6H19.8C20.4627 6 21 5.46274 21 4.8V4.2C21 3.53726 20.4627 3 19.8 3H19.2ZM18 11.7C18 11.0373 18.5373 10.5 19.2 10.5H19.8C20.4627 10.5 21 11.0373 21 11.7V12.3C21 12.9627 20.4627 13.5 19.8 13.5H19.2C18.5373 13.5 18 12.9627 18 12.3V11.7ZM19.2 18C18.5373 18 18 18.5373 18 19.2V19.8C18 20.4627 18.5373 21 19.2 21H19.8C20.4627 21 21 20.4627 21 19.8V19.2C21 18.5373 20.4627 18 19.8 18H19.2Z" fill="#0F0F0F"/>
</g>
</svg>

<svg xmlns="http://www.w3.org/2000/svg" width="24" height="24" viewBox="0 0 24 24">
  <g class="ic-grid-3">
    <path fill-rule="evenodd" d="M3 4.2A1.2 1.2 0 0 1 4.2 3h.6A1.2 1.2 0 0 1 6 4.2v.6A1.2 1.2 0 0 1 4.8 6h-.6A1.2 1.2 0 0 1 3 4.8v-.6Zm0 7.5a1.2 1.2 0 0 1 1.2-1.2h.6A1.2 1.2 0 0 1 6 11.7v.6a1.2 1.2 0 0 1-1.2 1.2h-.6A1.2 1.2 0 0 1 3 12.3v-.6ZM4.2 18A1.2 1.2 0 0 0 3 19.2v.6A1.2 1.2 0 0 0 4.2 21h.6A1.2 1.2 0 0 0 6 19.8v-.6A1.2 1.2 0 0 0 4.8 18h-.6Zm6.3-13.8A1.2 1.2 0 0 1 11.7 3h.6a1.2 1.2 0 0 1 1.2 1.2v.6A1.2 1.2 0 0 1 12.3 6h-.6a1.2 1.2 0 0 1-1.2-1.2v-.6Zm1.2 6.3a1.2 1.2 0 0 0-1.2 1.2v.6a1.2 1.2 0 0 0 1.2 1.2h.6a1.2 1.2 0 0 0 1.2-1.2v-.6a1.2 1.2 0 0 0-1.2-1.2h-.6Zm-1.2 8.7a1.2 1.2 0 0 1 1.2-1.2h.6a1.2 1.2 0 0 1 1.2 1.2v.6a1.2 1.2 0 0 1-1.2 1.2h-.6a1.2 1.2 0 0 1-1.2-1.2v-.6ZM19.2 3A1.2 1.2 0 0 0 18 4.2v.6A1.2 1.2 0 0 0 19.2 6h.6A1.2 1.2 0 0 0 21 4.8v-.6A1.2 1.2 0 0 0 19.8 3h-.6ZM18 11.7a1.2 1.2 0 0 1 1.2-1.2h.6a1.2 1.2 0 0 1 1.2 1.2v.6a1.2 1.2 0 0 1-1.2 1.2h-.6a1.2 1.2 0 0 1-1.2-1.2v-.6Zm1.2 6.3a1.2 1.2 0 0 0-1.2 1.2v.6a1.2 1.2 0 0 0 1.2 1.2h.6a1.2 1.2 0 0 0 1.2-1.2v-.6a1.2 1.2 0 0 0-1.2-1.2h-.6Z" class="Icon"/>
  </g>
</svg>
